X:48
%%scale .65
T: Trip To Athlone/ Fasten the Leg on Her/ My Darling Asleep
C:Can be Trip to Athlone/My Darling Asleep/ Clare Jig
T: Trip To Athlone, The
R: jig
M: 6/8
L: 1/8
K: Dmaj
|:ABA D2d|{e}dcA AGF|ABG ABc|dAB =cde|
ABA D2d|{e}dcA AGF|GFG Ade|1 fdc d2d:|2 fdc d2e||
|:fed edc|Adc Ade|fed efg|AB=c def|
~g3 age|{a}ed=c AGF|~G3 Ade|1 fdc d2e:|2 fdc d2d||
T: The Humours Of Ballinahulla
T:Fasten the Leg on Her
R: jig
M: 6/8
L: 1/8
K: Gmaj
~B3 G2D | GBd edB | ~A3 DFA | DFA cBA |
~B3 G2D | GBd edB | ~A3 DFA |1 AGF G2A :|2 AGF G2e||
~f3 def | ~g3 efg | fzA AFA | BAF Ade |
~f3 def | ~g3 efg | fdB AB^c |1 dfe d2e :|2 dfe d2c ||
T: My Darling Asleep
R: jig
M: 6/8
L: 1/8
K: Dmaj
|:fdd cAA|BGG A2G|FAA def|gfg eaa|
fdd cAA|BGG A2G|FAA def|gec d3:|
FAA Add|FAA BGG|FAA def|gfg eaa|
fdd cAA|BGG A2G|FAA def|gec d3:|
T: Clare Jig?????

